X:1
T:Title
%%score ( 1 2 ) { 3 | 4 }
L:1/8
Q:1/4=110
M:4/4
K:F
V:1 treble nm="Grand Piano, Soprano"
V:2 treble 
V:3 bass nm="Choir Pad, Apostles, CM"
V:4 bass 
V:1
 [CF]2 [DF]2- [DF][DF] [EG]2 | [EA]2 [FB]2 [FB]2 [FA]2 | [FA]2 [DB]2 [CG]2 [CA]2 | GF [CE]6 | %4
w: By~Kemble’s~Selection,~1864 * * * *||||
 [A,F]2 [CG]2 [DB]2 [CA]2 | [FA]2 [EG]2 [DF]2 [Fc]2 | [FA]2 [DG]2 [DF]2 [CF]2 | E-[B,E] [A,F]6- | %8
w: ||||
 [A,F]2 z2 z4 |] %9
w: |
V:2
 x8 | x8 | x8 | D2 z2 z4 | x8 | x8 | x8 | .C2 z2 z4 | x8 |] %9
V:3
 A,2 A,2- A,A, C2 | C2 D2 D2 C2 | C2[K:bass] B,2 C2 A,2 | B,2 G,6 | F,2 E,2 F,2 F,2 | %5
 C2 C2 A,2 A,2 | F,2 B,2 B,A, G,2 | G,2 F,6- | F,2 z2 z4 |] %9
V:4
 F,2 D,2- D,D, C,2 | C,2 B,,2 B,,2 F,2 | F,2 G,2 E,2 F,2 | B,,2 C,6 | D,2 C,2 B,,2 z2 | %5
 F,2 C,2 D,2 A,,2 | D,2 B,,2 B,,2 C,2 | C,2 F,,6- | F,,2 z2 z4 |] %9

